X: 91
T:Missa Fortuna desperata / Kyrie
N: Derived from Jos0802a-Missa_Fortuna_desperata-Kyrie.krn
C: Josquin des Prez
%%abc-version 2.0
%%abcx-abcm2ps-target-version 5.9.1 (29 Sep 2008)
%%abc-creator hum2abc beta
%%abcx-conversion-date 2019/02/12 16:15:42
%%abc-edited-by Jesse Rodin
%%abc-edited-by Jesse Rodin; Victoria Chang 2011/04/13
%%abcx-initial-encoding-date 2011/04/13/
%%humdrum-veritas 379553740
%%humdrum-veritas-data 364278682
%%linebreak <none>
%%barnumbers 0
L: 1/4
M: 3/1
Q: 1/2=120
%%staves [1 2 3 4]
V: 1 clef=treble
V: 2 clef=treble-8
V: 3 clef=treble-8
V: 4 clef=bass
K: C
[V:1] F8F2E2 | 
[V:2] F8F2G2 | 
[V:3] z12 | 
[V:4] F,8D,2C,2 | 
[V:1] C4z4G4 | 
[V:2] A4G8 | 
[V:3] z12 | 
[V:4] F,3E,C,8 | 
[V:1] A8A4 | 
[V:2] F4z4c4 | 
[V:3] F12 | 
[V:4] C3B,A,G,A,3G,F,E, | 
[V:1] A4G8 | 
[V:2] d4B4c4 | 
[V:3] F4G8 | 
[V:4] D,4E,8 | 
[V:1] F3GABc2A2c2- | 
[V:2] d2f4e2c3d | 
[V:3] A12 | 
[V:4] D,6C,2F,3E, | 
[V:1] cBGA_B3AGFG2 | 
[V:2] efg4f4e2 | 
[V:3] G12 | 
[V:4] C,2_E,3D,_B,,2C,4 | 
[V:1] A2F2_B2A4GF | 
[V:2] f3edcc4B2 | 
[V:3] F12 | 
[V:4] z2D,2_B,,2C,2D,4 | 
[V:1] E2A4G2c4 | 
[V:2] c2ABcde2cdef | 
[V:3] z4c8 | 
[V:4] C,2F,4E,2A,4 | 
[V:1] B2A2B4A4 | 
[V:2] g2a2d2g4^f2 | 
[V:3] d12 | 
[V:4] G,2F,2G,4D,4 | 
[V:1] z2G6G4 | 
[V:2] g8G3A | 
[V:3] _B4c8 | 
[V:4] _E,8E,3D, | 
[V:1] F4G2_B3AGF | 
[V:2] _B6G2G4 | 
[V:3] d12 | 
[V:4] _B,,8_B,3A, | 
[V:1] G3FD3EF2G2- | 
[V:2] d4z4d4 | 
[V:3] _B4_B8 | 
[V:4] G,F,G,4F,E,D,2G,2 | 
[V:1] G2E2F2G2z2C2 | 
[V:2] e4d2G2A2c2- | 
[V:3] c4_B4A4 | 
[V:4] z2C,2D,2E,2F,4 | 
[V:1] D2F2E2F4E2 | 
[V:2] c2B2c8- | 
[V:3] F4G8 | 
[V:4] D,4C,8 | 
[V:1] F12 ||  
[V:2] c12 ||  
[V:3] F12 ||  
[V:4] F,12 ||  
[V:1] [M:2/1]c8- | 
[V:2] [M:2/1]c3de2f2 | 
[V:3] [M:4/2]z8 :
[V:4] [M:2/1]z8 | 
[V:1] c4A4 | 
[V:2] e2f3dd2- | 
[V:3] z8 | 
[V:4] z8 | 
[V:1] B4c2d2- | 
[V:2] d2e3cf2- | 
[V:3] z8 :
[V:4] z8 | 
[V:1] d2c2A4 | 
[V:2] f2e2f2d2 | 
[V:3] z8 | 
[V:4] z8 | 
[V:1] G4A2_B2- | 
[V:2] edcBA2G2- | 
[V:3] z8 :
[V:4] z8 | 
[V:1] BAGFG4 | 
[V:2] GFf4e2 | 
[V:3] z8 | 
[V:4] z4C,4 | 
[V:1] F8 | 
[V:2] f8 | 
[V:3] f8- :
[V:4] D,4F,4- | 
[V:1] z8 | 
[V:2] c8 | 
[V:3] f8 | 
[V:4] F,2E,D,F,4 | 
[V:1] F8- | 
[V:2] d8 | 
[V:3] f8 :
[V:4] _B,,8 | 
[V:1] F4G4 | 
[V:2] z4G4 | 
[V:3] d8 | 
[V:4] _B,8 | 
[V:1] A8 | 
[V:2] c8- | 
[V:3] e8- :
[V:4] A,8- | 
[V:1] c8 | 
[V:2] c8 | 
[V:3] e8 | 
[V:4] A,8 | 
[V:1] B8 | 
[V:2] d4e4 | 
[V:3] g8 :
[V:4] G,4E,4 | 
[V:1] A8 | 
[V:2] A8 | 
[V:3] f4e4 | 
[V:4] F,8 | 
[V:1] G8 | 
[V:2] B8 | 
[V:3] d8- :
[V:4] G,8 | 
[V:1] F8 | 
[V:2] A8 | 
[V:3] d8 | 
[V:4] D,8 | 
[V:1] G8 | 
[V:2] B8 | 
[V:3] e8 :
[V:4] G,8 | 
[V:1] A8 | 
[V:2] A8 | 
[V:3] f8 | 
[V:4] F,8 | 
[V:1] _B8- | 
[V:2] G8 | 
[V:3] (g8- :
[V:4] _E,8- | 
[V:1] B8- | 
[V:2] _e8- | 
[V:3] g8- | 
[V:4] E,8- | 
[V:1] B8 | 
[V:2] e8 | 
[V:3] g8) :
[V:4] E,8 | 
[V:1] A8- | 
[V:2] c8 | 
[V:3] f8 | 
[V:4] F,8 | 
[V:1] A8 | 
[V:2] d8 | 
[V:3] f8 :
[V:4] D,8 | 
[V:1] G8- | 
[V:2] B8 | 
[V:3] e4d4 | 
[V:4] G,8 | 
[V:1] G8- | 
[V:2] c8 | 
[V:3] e8- :
[V:4] C,8 | 
[V:1] G8 | 
[V:2] B8 | 
[V:3] e8 | 
[V:4] G,8 | 
[V:1] A8- | 
[V:2] c8 | 
[V:3] f8- :
[V:4] F,8 | 
[V:1] A4F4 | 
[V:2] d8 | 
[V:3] f8 | 
[V:4] D,8 | 
[V:1] G8 | 
[V:2] B8 | 
[V:3] z8 :
[V:4] E,8 | 
[V:1] A8 | 
[V:2] A8 | 
[V:3] f8 | 
[V:4] F,8 | 
[V:1] _B8 | 
[V:2] d8 | 
[V:3] f8 :
[V:4] _B,,8 | 
[V:1] A8 | 
[V:2] c4A3G | 
[V:3] e4d4- | 
[V:4] C,4D,4- | 
[V:1] F4G4 | 
[V:2] A2_B2G4 | 
[V:3] d4c4 :
[V:4] D,4E,4 | 
[V:1] A4F4- | 
[V:2] F4c4 | 
[V:3] A8 | 
[V:4] F,8 | 
[V:1] F4E4 | 
[V:2] d4e4 | 
[V:3] _B8- :
[V:4] _B,,8- | 
[V:1] D8 | 
[V:2] f8 | 
[V:3] B8 | 
[V:4] B,,8 | 
[V:1] C8 ||  
[V:2] f8 ||  
[V:3] A8 ||  
[V:4] F,8 ||  
[V:1] [M:3/1]z12 | 
[V:2] [M:3/1]A4c3de3f | 
[V:3] [M:3/1]c12 | 
[V:4] [M:3/1]A,8A,4 | 
[V:1] z12 | 
[V:2] ga_b3aa4g2 | 
[V:3] d12 | 
[V:4] G,6F,2_B,4 | 
[V:1] c4A2c3BA2 | 
[V:2] a8f4 | 
[V:3] c12 | 
[V:4] A,4F,8 | 
[V:1] G4A2G2c3A | 
[V:2] g2c3de2A2c2 | 
[V:3] e8z4 | 
[V:4] C4A,2C3B,A,2 | 
[V:1] B2c3BA4G2 | 
[V:2] B2A2F4z4 | 
[V:3] e4f4d4 | 
[V:4] G,2A,4F,2_B,4 | 
[V:1] c3BAGG4^F2 | 
[V:2] z2F4G2A3B | 
[V:3] c8d4 | 
[V:4] A,3G,F,2E,2D,4 | 
[V:1] G4z4G4 | 
[V:2] E2c3BA4G2 | 
[V:3] e6d2c2B2 | 
[V:4] z2C,4D,2E,4 | 
[V:1] E2c3BA2G2E2 | 
[V:2] A4F4G3A | 
[V:3] c12 | 
[V:4] A,,2A,3G,F,2E,4 | 
[V:1] F3GA2D3EFG | 
[V:2] _B2A4G2_B2A2- | 
[V:3] d12 | 
[V:4] D,3E,F,2G,2D,3E, | 
[V:1] A2B4A4^G2 | 
[V:2] A2G2d2f2e3d | 
[V:3] d4B8 | 
[V:4] F,2G,3F,D,2E,4 | 
[V:1] A4z4c4 | 
[V:2] cBA3GF4E2 | 
[V:3] A12 | 
[V:4] z2F,4D,2C,4 | 
[V:1] d4G2d2G2d2 | 
[V:2] F2G4F2GA_Bc | 
[V:3] _B12 | 
[V:4] _B,,4_E,2D,2G,3A, | 
[V:1] z2d2c2_B4AG | 
[V:2] d2G6_B3c | 
[V:3] G12 | 
[V:4] _B,4_E,8 | 
[V:1] F4z4c4 | 
[V:2] d2A2c3BAGF2 | 
[V:3] A12 | 
[V:4] D,4C,2F,3G,A,2- | 
[V:1] d4c2A2_B3A | 
[V:2] f2g2e2f2_Bcde | 
[V:3] _B4A4d4- | 
[V:4] A,2G,2A,2F,2G,2_B,2- | 
[V:1] F2c2d2_B2c2A2 | 
[V:2] f3ef2g2e2f2 | 
[V:3] d2c2_B4A4 | 
[V:4] B,A,A,4G,2A,2F,2 | 
[V:1] _BAGFG2F4E2 | 
[V:2] d2_e3fd2c4- | 
[V:3] G12 | 
[V:4] G,2_E,3D,_B,,2C,4 | 
[V:1] F12 |]  
[V:2] c12 |]  
[V:3] F12 |]  
[V:4] F,,12 & F,12 |]  



